X: 305692
M: 2/4
L: 1/16
K: G
d2 |\
[g4B4] [f4A4] | g2d2d2 ba | gagf efed | cdcB A2fg |\
a4 d4 | c'4 z2bc' | d'c'ba g2f2 | g2b2g2 H|]
fg |\
agfe dcBA | GBdB g2bc' | d'2b2 c'2a2 | gfgb a2fg |\
agfe dcBA | GBdf g2e2 | dfa2 age^c | d2f2"^D.C."d2 |]
e4 g4 | f4 ^dcB2 | g4 a4 | b4 b4 |\
c'bc'b c'2f2 | b^aba b4g4 | a4 g4 | f6 B2 |\
e4 g4 | f4 ^d2cB | g4 a4 | b4 b2d'2 |\
c'2b2 a4 | b2a2 g4 | e2b2 a2g2 | ^d4 "^D.C."e2 |]


